X: 1
T: La Marseillaise   [G]
C: Rouget de Lisle
N: The composer's name is often spelled "Rouget de l'Isle"
P: piffero primo a0405
O: France
%R: march
F: http://ancients.sudburymuster.org/mus/col/pdf/anthemsF.pdf
Z: 2020 John Chambers <jc:trillian.mit.edu>
M: 4/4
L: 1/8
K: G
DD>D |\
G2G2 A2A2 | (d3B) G>GB>G | E2 c4 A>F | G4 zGG>A | B2B2 B2(c>B) | (BA)A2 zAA>B |
c2c2 c2(d>c) | B4 zdd>d | d2(B>G) d2(B>G) | D4 zDD>D | A3A c2(A>F) | (AG)G2 zG=FF |
E2G2 G2(F>G) | A6 zA | _B3B ABc>B | A4 z2(_BA) | G2G2 G_BAG | (GF)F4 zd | d4- d>dB>G |
A6 zd | d4- d>dB>G | A4- AzD2 | G6 A2 | B6 B2 | (c4 d2)e2 | A4- Aze2 | d4- d>Bc>A | G4- G |]


